src/default/cmd/lc_romanliststyle.svg

<?xml version="1.0" encoding="UTF-8" standalone="no"?>
<svg
   xmlns:dc="http://purl.org/dc/elements/1.1/"
   xmlns:cc="http://creativecommons.org/ns#"
   xmlns:rdf="http://www.w3.org/1999/02/22-rdf-syntax-ns#"
   xmlns:svg="http://www.w3.org/2000/svg"
   xmlns="http://www.w3.org/2000/svg"
   xmlns:sodipodi="http://sodipodi.sourceforge.net/DTD/sodipodi-0.dtd"
   xmlns:inkscape="http://www.inkscape.org/namespaces/inkscape"
   viewBox="0 0 24 24"
   version="1.1"
   id="svg6"
   sodipodi:docname="lc_romanliststyle.svg"
   inkscape:version="1.0.1 (3bc2e813f5, 2020-09-07)"
   inkscape:export-filename="/home/jupiter007/Libreoffice yaru theme fullcolor/build/cmd/lc_romanliststyle.png"
   inkscape:export-xdpi="96"
   inkscape:export-ydpi="96">
  <metadata
     id="metadata12">
    <rdf:RDF>
      <cc:Work
         rdf:about="">
        <dc:format>image/svg+xml</dc:format>
        <dc:type
           rdf:resource="http://purl.org/dc/dcmitype/StillImage" />
        <dc:title></dc:title>
      </cc:Work>
    </rdf:RDF>
  </metadata>
  <defs
     id="defs10" />
  <sodipodi:namedview
     pagecolor="#808080"
     bordercolor="#666666"
     borderopacity="1"
     objecttolerance="10"
     gridtolerance="10"
     guidetolerance="10"
     inkscape:pageopacity="0"
     inkscape:pageshadow="2"
     inkscape:window-width="1920"
     inkscape:window-height="1016"
     id="namedview8"
     showgrid="true"
     inkscape:zoom="19.666667"
     inkscape:cx="0.093070203"
     inkscape:cy="12.438704"
     inkscape:window-x="0"
     inkscape:window-y="27"
     inkscape:window-maximized="1"
     inkscape:current-layer="svg6"
     inkscape:document-rotation="0">
    <inkscape:grid
       type="xygrid"
       id="grid822" />
  </sodipodi:namedview>
  <path
     style="opacity:1;vector-effect:none;fill:#00ff00;fill-opacity:1;stroke:none;stroke-width:1.523;stroke-linecap:round;stroke-linejoin:round;stroke-miterlimit:4;stroke-dasharray:none;stroke-dashoffset:0;stroke-opacity:1"
     d="m 0,16 v 1 h 1 v 2 H 0 v 1 H 7 V 19 H 6 v -2 h 1 v -1 z m 2,1 h 1 v 2 H 2 Z m 2,0 h 1 v 2 H 4 Z"
     id="rect840" />
  <path
     style="opacity:1;fill:#00ff00;fill-opacity:1;stroke:none;stroke-width:2;stroke-linecap:round;stroke-linejoin:round;stroke-miterlimit:4;stroke-dasharray:none;stroke-opacity:1"
     d="M 4,4 V 5 H 5 V 7 H 4 V 8 H 7 V 7 H 6 V 5 H 7 V 4 Z"
     id="rect846" />
  <path
     style="opacity:1;fill:#00ff00;fill-opacity:1;stroke:none;stroke-width:2;stroke-linecap:round;stroke-linejoin:round;stroke-miterlimit:4;stroke-dasharray:none;stroke-opacity:1"
     d="m 2,10 v 1 h 1 v 2 H 2 v 1 H 7 V 13 H 6 v -2 h 1 v -1 z m 2,1 h 1 v 2 H 4 Z"
     id="rect852" />
  <rect
     style="fill:#ffffff;fill-rule:evenodd;stroke-width:3;stroke-linecap:round;stroke-linejoin:round"
     id="rect843-2"
     width="10"
     height="1"
     x="8.999999"
     y="-8"
     transform="scale(1,-1)" />
  <rect
     style="fill:#232629;fill-rule:evenodd;stroke-width:3;stroke-linecap:round;stroke-linejoin:round"
     id="rect861"
     width="10"
     height="1"
     x="8.999999"
     y="-7"
     transform="scale(1,-1)" />
  <rect
     style="fill:#ffffff;fill-rule:evenodd;stroke-width:3;stroke-linecap:round;stroke-linejoin:round"
     id="rect867"
     width="14"
     height="1"
     x="9"
     y="-6"
     transform="scale(1,-1)" />
  <rect
     style="fill:#232629;fill-rule:evenodd;stroke-width:3;stroke-linecap:round;stroke-linejoin:round"
     id="rect869"
     width="14"
     height="1"
     x="9"
     y="-5"
     transform="scale(1,-1)" />
  <rect
     style="fill:#ffffff;fill-rule:evenodd;stroke-width:3;stroke-linecap:round;stroke-linejoin:round"
     id="rect864"
     width="10"
     height="1"
     x="8.999999"
     y="-14.000001"
     transform="scale(1,-1)" />
  <rect
     style="fill:#232629;fill-rule:evenodd;stroke-width:3;stroke-linecap:round;stroke-linejoin:round"
     id="rect866"
     width="10"
     height="1"
     x="8.999999"
     y="-13.000001"
     transform="scale(1,-1)" />
  <rect
     style="fill:#ffffff;fill-rule:evenodd;stroke-width:3;stroke-linecap:round;stroke-linejoin:round"
     id="rect868"
     width="14"
     height="1"
     x="9"
     y="-12.000001"
     transform="scale(1,-1)" />
  <rect
     style="fill:#232629;fill-rule:evenodd;stroke-width:3;stroke-linecap:round;stroke-linejoin:round"
     id="rect870"
     width="14"
     height="1"
     x="9"
     y="-11"
     transform="scale(1,-1)" />
  <rect
     style="fill:#ffffff;fill-rule:evenodd;stroke-width:3;stroke-linecap:round;stroke-linejoin:round"
     id="rect877"
     width="10"
     height="1"
     x="8.999999"
     y="-20"
     transform="scale(1,-1)" />
  <rect
     style="fill:#232629;fill-rule:evenodd;stroke-width:3;stroke-linecap:round;stroke-linejoin:round"
     id="rect879"
     width="10"
     height="1"
     x="8.999999"
     y="-19"
     transform="scale(1,-1)" />
  <rect
     style="fill:#ffffff;fill-rule:evenodd;stroke-width:3;stroke-linecap:round;stroke-linejoin:round"
     id="rect881"
     width="14"
     height="1"
     x="9"
     y="-18"
     transform="scale(1,-1)" />
  <rect
     style="fill:#232629;fill-rule:evenodd;stroke-width:3;stroke-linecap:round;stroke-linejoin:round"
     id="rect883"
     width="14"
     height="1"
     x="9"
     y="-17"
     transform="scale(1,-1)" />
</svg>

<?xml version="1.0" encoding="UTF-8" standalone="no"?>
<svg
   viewBox="0 0 24 24"
   version="1.1"
   id="svg6"
   sodipodi:docname="lc_romanliststyle.svg"
   inkscape:version="1.4.2 (ebf0e940d0, 2025-05-08)"
   inkscape:export-filename="/home/jupiter007/Libreoffice yaru theme fullcolor/build/cmd/lc_romanliststyle.png"
   inkscape:export-xdpi="96"
   inkscape:export-ydpi="96"
   xmlns:inkscape="http://www.inkscape.org/namespaces/inkscape"
   xmlns:sodipodi="http://sodipodi.sourceforge.net/DTD/sodipodi-0.dtd"
   xmlns="http://www.w3.org/2000/svg"
   xmlns:svg="http://www.w3.org/2000/svg"
   xmlns:rdf="http://www.w3.org/1999/02/22-rdf-syntax-ns#"
   xmlns:cc="http://creativecommons.org/ns#"
   xmlns:dc="http://purl.org/dc/elements/1.1/">
  <metadata
     id="metadata12">
    <rdf:RDF>
      <cc:Work
         rdf:about="">
        <dc:format>image/svg+xml</dc:format>
        <dc:type
           rdf:resource="http://purl.org/dc/dcmitype/StillImage" />
        <dc:title />
      </cc:Work>
    </rdf:RDF>
  </metadata>
  <defs
     id="defs10" />
  <sodipodi:namedview
     pagecolor="#ffffff"
     bordercolor="#666666"
     borderopacity="1"
     objecttolerance="10"
     gridtolerance="10"
     guidetolerance="10"
     inkscape:pageopacity="0"
     inkscape:pageshadow="2"
     inkscape:window-width="1920"
     inkscape:window-height="1011"
     id="namedview8"
     showgrid="true"
     inkscape:zoom="19.666667"
     inkscape:cx="12.279661"
     inkscape:cy="16.855932"
     inkscape:window-x="0"
     inkscape:window-y="0"
     inkscape:window-maximized="1"
     inkscape:current-layer="svg6"
     inkscape:document-rotation="0"
     inkscape:showpageshadow="2"
     inkscape:pagecheckerboard="0"
     inkscape:deskcolor="#d1d1d1">
    <inkscape:grid
       type="xygrid"
       id="grid822"
       originx="0"
       originy="0"
       spacingy="1"
       spacingx="1"
       units="px" />
  </sodipodi:namedview>
  <path
     id="rect840"
     style="opacity:1;vector-effect:none;fill:#00ff00;fill-opacity:1;stroke:none;stroke-width:1.523;stroke-linecap:round;stroke-linejoin:round;stroke-miterlimit:4;stroke-dasharray:none;stroke-dashoffset:0;stroke-opacity:1"
     d="M 4 4 L 4 5 L 5 5 L 5 7 L 4 7 L 4 8 L 7 8 L 7 7 L 6 7 L 6 5 L 7 5 L 7 4 L 4 4 z M 2 10 L 2 11 L 3 11 L 3 13 L 2 13 L 2 14 L 7 14 L 7 13 L 6 13 L 6 11 L 7 11 L 7 10 L 2 10 z M 4 11 L 5 11 L 5 13 L 4 13 L 4 11 z M 0 16 L 0 17 L 1 17 L 1 19 L 0 19 L 0 20 L 7 20 L 7 19 L 6 19 L 6 17 L 7 17 L 7 16 L 0 16 z M 2 17 L 3 17 L 3 19 L 2 19 L 2 17 z M 4 17 L 5 17 L 5 19 L 4 19 L 4 17 z " />
  <path
     id="rect861"
     style="fill:#0000ff;fill-rule:evenodd;stroke-width:3;stroke-linecap:round;stroke-linejoin:round"
     d="M 9 -4 L 9 -5 L 23 -5 L 23 -4 L 9 -4 z M 9 -6 L 9 -7 L 19 -7 L 19 -6 L 9 -6 z M 9 -10 L 9 -11 L 23 -11 L 23 -10 L 9 -10 z M 9 -12 L 9 -13 L 19 -13 L 19 -12 L 9 -12 z M 9 -16 L 9 -17 L 23 -17 L 23 -16 L 9 -16 z M 9 -18 L 9 -19 L 19 -19 L 19 -18 L 9 -18 z "
     transform="scale(1,-1)" />
</svg>
